X:1
T:King of Kings, LM
T:King of Kings, LM
T:George Clement Martin (1844–1916)
T:Public Domain Courtesy of the Cyber Hymnal™
C:George Clement Martin (1844–1916)
Z:Public Domain
Z:Courtesy of the Cyber Hymnal™
%%score ( 1 2 ) ( 3 4 )
L:1/8
Q:1/4=108
M:4/4
K:A
V:1 treble 
V:2 treble 
V:3 bass 
V:4 bass 
V:1
 E2 | [Ec]3 [DB] [CA]2 [EG]2 | [EG]3 [DF] [DF]2 [EF]2 | d3 z c [FB]2 F2 | [EA]3 [EG] [EG]2 [EB]2 | %5
 [Ee]2 [Ec]2 [CA]2 [Ec]2 | [Dd]2 [FB]2 [EG]2 E2 | [EF]3 [DG] [CA]2 [Ec]2 | [DB]3 [CA] [CA]2 |] %9
V:2
 E2 | x8 | x8 | D2 (E2 x F2) x2 | x8 | x8 | x6 E2 | x8 | x6 |] %9
V:3
 [E,G,]2 | A,2 [E,G,]2 [F,A,]2 [C,A,]2 | [D,A,]3 [D,A,] [D,A,]2 [^A,,C]2 | %3
 [B,,F,]2 [C,^A,]2 [D,B,]2 [^D,B,]2 x | [E,C]3 [E,B,] [E,B,]2 [D,G,]2 | %5
 [C,A,]2 [E,G,]2 [F,A,]2 [F,^A,]2 | [B,,B,]2 [D,F,]2 [E,B,]2 [C,A,]2 | %7
 [D,C]3 [E,B,] [F,A,]2 [C,A,]2 | [E,G,]3 [A,,A,] [A,,A,]2 |] %9
V:4
 x2 | A,2 x6 | x8 | x9 | x8 | x8 | x8 | x8 | x6 |] %9

